X:513
T:Buachaill\'in Bu\'i, An
R:jig
H:See also #330
D:Mulcahy Family
Z:id:hn-jig-513
M:6/8
L:1/8
K:D
B | AFA D2E | DFA A2B | AFA DFA | B2A BdB |
AFA D2E | DFA ABc | def g2e | fdB Bd :|
B |: Add fdd | ede fdd | Add f2d | edB BAF |
Add fdd | ede f2a | g2e fdB | AFA B2d :|

